_editor/libs/builder/icons/vendor.svg

<svg viewBox="0 0 256 256" xmlns="http://www.w3.org/2000/svg"><g fill="none"><path d="m0 0h256v256h-256z"/><g stroke="#000" stroke-linecap="round" stroke-linejoin="round" stroke-width="8"><path d="m48 139.6v68.4a8 8 0 0 0 8 8h144a8 8 0 0 0 8-8v-68.4"/><path d="m54 40h148a8.1 8.1 0 0 1 7.7 5.8l14.3 50.2h-192l14.3-50.2a8.1 8.1 0 0 1 7.7-5.8z"/><path d="m96 96v16a32 32 0 0 1 -64 0v-16"/><path d="m160 96v16a32 32 0 0 1 -64 0v-16"/><path d="m224 96v16a32 32 0 0 1 -64 0v-16"/></g></g></svg>

<?xml version="1.0" ?><svg viewBox="0 0 256 256" xmlns="http://www.w3.org/2000/svg"><rect fill="none" height="256" width="256"/><path d="M48,139.6V208a8,8,0,0,0,8,8H200a8,8,0,0,0,8-8V139.6" fill="none" stroke="#000" stroke-linecap="round" stroke-linejoin="round" stroke-width="8"/><path d="M54,40H202a8.1,8.1,0,0,1,7.7,5.8L224,96H32L46.3,45.8A8.1,8.1,0,0,1,54,40Z" fill="none" stroke="#000" stroke-linecap="round" stroke-linejoin="round" stroke-width="8"/><path d="M96,96v16a32,32,0,0,1-64,0V96" fill="none" stroke="#000" stroke-linecap="round" stroke-linejoin="round" stroke-width="8"/><path d="M160,96v16a32,32,0,0,1-64,0V96" fill="none" stroke="#000" stroke-linecap="round" stroke-linejoin="round" stroke-width="8"/><path d="M224,96v16a32,32,0,0,1-64,0V96" fill="none" stroke="#000" stroke-linecap="round" stroke-linejoin="round" stroke-width="8"/></svg>
